X: 35
T: Mrs Savage's Whim
M:3/2
L:1/4
Z:Alf Warnock - alf0@rogers.com
K:D
|: "Bm"fB2f "Em"g2| "A"ec2d/2e/2 "Bm"fd|fB2f g2| "A"ed/2e/2 cf "Bm"dB|
"Bm"fB2f g2| "G"gf/2g/2 ed eA|"D"fd2a bB|"A"cd ec "D"d2:|
"D"fd2f/2g/2 a2| "A"ec2e/2f/2 g2| "Bm"dB2d/2e/2 fF|"Em"Bc/2d/2 e/2d/2c/2B/2 ^AF|
"Bm"fB2f g2| "A"ec2d/2e/2 fF|"Bm"dB2d cF|"Bm"FB "F#"c^A "Bm"B2|]
